Papirus/64x64/apps/polari.svg

<!-- Created with Inkscape (http://www.inkscape.org/) -->
<svg width="64" height="64" version="1.1" viewBox="0 0 64 64" xmlns="http://www.w3.org/2000/svg">
 <g>
  <path d="m25 21c-2.769998 0-5 2.230002-5 5v22c0 2.769998 2.230002 5 5 5h21l8 8v-8h1c2.769998 0 5-2.230002 5-5v-22c0-2.769998-2.230002-5-5-5z" style="opacity:.2"/>
  <path d="m25 20c-2.769998 0-5 2.230002-5 5v22c0 2.769998 2.230002 5 5 5h21l8 8v-8h1c2.769998 0 5-2.230002 5-5v-22c0-2.769998-2.230002-5-5-5z" style="fill:#f2f2f2"/>
  <path d="m25 20c-2.769996 0-5 2.230004-5 5v1c0-2.769996 2.230004-5 5-5h30c2.769996 0 5 2.230004 5 5v-1c0-2.769996-2.230004-5-5-5z" style="fill:#ffffff;opacity:.2"/>
  <path d="m9 5c-2.7699972 0-5 2.2300028-5 5v22c0 2.769998 2.2300028 5 5 5h1v8l8-8h21c2.769998 0 5-2.230002 5-5v-22c0-2.7699972-2.230002-5-5-5z" style="opacity:.2"/>
  <path d="m9 4c-2.7699972 0-5 2.2300028-5 5v22c0 2.769998 2.2300028 5 5 5h1v8l8-8h21c2.769998 0 5-2.230002 5-5v-22c0-2.7699972-2.230002-5-5-5z" style="fill:#33d17a"/>
  <path d="m18 11v4h-4v4h4v4h-4v4h4v4h4v-4h4v4h4v-4h4v-4h-4v-4h4v-4h-4v-4h-4v4h-4v-4zm4 8h4v4h-4z" style="opacity:.2"/>
  <path d="m18 10v4h-4v4h4v4h-4v4h4v4h4v-4h4v4h4v-4h4v-4h-4v-4h4v-4h-4v-4h-4v4h-4v-4zm4 8h4v4h-4z" style="fill:#ffffff"/>
  <path d="m9 4c-2.7699944 0-5 2.2300056-5 5v1c0-2.7699944 2.2300056-5 5-5h30c2.769996 0 5 2.2300056 5 5v-1c0-2.7699944-2.230004-5-5-5z" style="fill:#ffffff;opacity:.2"/>
 </g>
</svg>

<svg xmlns="http://www.w3.org/2000/svg" width="64" height="64" version="1.1">
 <path style="opacity:0.2" d="M 25,21 C 22.23,21 20,23.23 20,26 V 48 C 20,50.77 22.23,53 25,53 H 46 L 54,61 V 53 H 55 C 57.77,53 60,50.77 60,48 V 26 C 60,23.23 57.77,21 55,21 Z"/>
 <path style="fill:#dfdfdf" d="M 25,20 C 22.23,20 20,22.23 20,25 V 47 C 20,49.77 22.23,52 25,52 H 46 L 54,60 V 52 H 55 C 57.77,52 60,49.77 60,47 V 25 C 60,22.23 57.77,20 55,20 Z"/>
 <path style="opacity:0.2;fill:#ffffff" d="M 25,20 C 22.23,20 20,22.23 20,25 V 26 C 20,23.23 22.23,21 25,21 H 55 C 57.77,21 60,23.23 60,26 V 25 C 60,22.23 57.77,20 55,20 Z"/>
 <path style="opacity:0.2" d="M 9,5 C 6.23,5 4,7.23 4,10 V 32 C 4,34.77 6.23,37 9,37 H 10 V 45 L 18,37 H 39 C 41.77,37 44,34.77 44,32 V 10 C 44,7.23 41.77,5 39,5 Z"/>
 <path style="fill:#33d17a" d="M 9,4 C 6.23,4 4,6.23 4,9 V 31 C 4,33.77 6.23,36 9,36 H 10 V 44 L 18,36 H 39 C 41.77,36 44,33.77 44,31 V 9 C 44,6.23 41.77,4 39,4 Z"/>
 <path style="opacity:0.2" d="M 18,11 V 15 H 14 V 19 H 18 V 23 H 14 V 27 H 18 V 31 H 22 V 27 H 26 V 31 H 30 V 27 H 34 V 23 H 30 V 19 H 34 V 15 H 30 V 11 H 26 V 15 H 22 V 11 Z M 22,19 H 26 V 23 H 22 Z"/>
 <path style="fill:#ffffff" d="M 18,10 V 14 H 14 V 18 H 18 V 22 H 14 V 26 H 18 V 30 H 22 V 26 H 26 V 30 H 30 V 26 H 34 V 22 H 30 V 18 H 34 V 14 H 30 V 10 H 26 V 14 H 22 V 10 Z M 22,18 H 26 V 22 H 22 Z"/>
 <path style="opacity:0.2;fill:#ffffff" d="M 9,4 C 6.23,4 4,6.23 4,9 V 10 C 4,7.23 6.23,5 9,5 H 39 C 41.77,5 44,7.23 44,10 V 9 C 44,6.23 41.77,4 39,4 Z"/>
</svg>
